svgs/solid/square-caret-left.svg

<svg xmlns="http://www.w3.org/2000/svg" viewBox="0 0 448 512"><!-- Font Awesome Pro 6.0.0-alpha2 by @fontawesome - https://fontawesome.com License - https://fontawesome.com/license (Commercial License) --><path d="M384 32H64C28.654 32 0 60.652 0 96V416C0 451.344 28.654 480 64 480H384C419.346 480 448 451.344 448 416V96C448 60.652 419.346 32 384 32ZM288 360C288 369.531 282.344 378.188 273.594 382C270.5 383.344 267.25 384 264 384C258.062 384 252.188 381.781 247.656 377.594L135.656 273.594C130.781 269.031 128 262.688 128 256S130.781 242.969 135.656 238.406L247.656 134.406C254.688 127.938 264.875 126.25 273.594 130C282.344 133.812 288 142.469 288 152V360Z"/></svg>

<svg xmlns="http://www.w3.org/2000/svg" viewBox="0 0 448 512"><!--! Font Awesome Pro 6.4.0 by @fontawesome - https://fontawesome.com License - https://fontawesome.com/license (Commercial License) Copyright 2023 Fonticons, Inc. --><path d="M0 416c0 35.3 28.7 64 64 64l320 0c35.3 0 64-28.7 64-64l0-320c0-35.3-28.7-64-64-64L64 32C28.7 32 0 60.7 0 96L0 416zM128 256c0-6.7 2.8-13 7.7-17.6l112-104c7-6.5 17.2-8.2 25.9-4.4s14.4 12.5 14.4 22l0 208c0 9.5-5.7 18.2-14.4 22s-18.9 2.1-25.9-4.4l-112-104c-4.9-4.5-7.7-10.9-7.7-17.6z"/></svg>
